X:27
T:Tiffy and Pluto
R:strathspey
C:Brenda Stubbert
O:Cape Breton Island
S:http://www.cranfordpub.com
D:Some Tasty Tunes, 1999
Z:psc, (re-formatted,updated 9/19/04)
N:http://www.cranfordpub.com/stubbert
H:                                                        copyrights Stubbert Music, SOCAN
L:1/8
Q:288
M:C
K:Gdor
Ac A>GG<A|F<CC>A c>BA>F|\
Gc A>GG<A|F<CF<A G2 G>A|
Gc A>GG<A|F<CC>A c>BA>F|\
Gc A>GG<A|F<CF<A G2 (3GAA||
|:G>gg>f g>dd<e|f>dcGF<A|\
G>gg>f g>dd<e|f>de>c d/d/d d<e|
d>gg>f g>dd<e|f>dcGF<A|\
Gc A>GG<A|F<CF<A G2 (3GAA|]
